images/content/johnson-solids/gyrobifastigium.svg

<?xml version="1.0" encoding="UTF-8"?>
<svg xmlns="http://www.w3.org/2000/svg" xmlns:xlink="http://www.w3.org/1999/xlink" width="137.03pt" height="179.85pt" viewBox="0 0 137.03 179.85" version="1.2">
<defs>
<clipPath id="clip1">
  <path d="M 30 62 L 112 62 L 112 179.144531 L 30 179.144531 Z M 30 62 "/>
</clipPath>
<clipPath id="clip2">
  <path d="M 30 142 L 112 142 L 112 179.144531 L 30 179.144531 Z M 30 142 "/>
</clipPath>
<clipPath id="clip3">
  <path d="M 51 0.558594 L 136 0.558594 L 136 88 L 51 88 Z M 51 0.558594 "/>
</clipPath>
<clipPath id="clip4">
  <path d="M 51 0.558594 L 136.066406 0.558594 L 136.066406 88 L 51 88 Z M 51 0.558594 "/>
</clipPath>
<clipPath id="clip5">
  <path d="M 51 62 L 136.066406 62 L 136.066406 179.144531 L 51 179.144531 Z M 51 62 "/>
</clipPath>
<clipPath id="clip6">
  <path d="M 42 0.558594 L 95 0.558594 L 95 63 L 42 63 Z M 42 0.558594 "/>
</clipPath>
<clipPath id="clip7">
  <path d="M 41 0.558594 L 95 0.558594 L 95 63 L 41 63 Z M 41 0.558594 "/>
</clipPath>
<clipPath id="clip8">
  <path d="M 91 87 L 136.066406 87 L 136.066406 179.144531 L 91 179.144531 Z M 91 87 "/>
</clipPath>
<clipPath id="clip9">
  <path d="M 91 0.558594 L 136 0.558594 L 136 144 L 91 144 Z M 91 0.558594 "/>
</clipPath>
<clipPath id="clip10">
  <path d="M 91 0.558594 L 136.066406 0.558594 L 136.066406 144 L 91 144 Z M 91 0.558594 "/>
</clipPath>
<clipPath id="clip11">
  <path d="M 42 0.558594 L 95 0.558594 L 95 144 L 42 144 Z M 42 0.558594 "/>
</clipPath>
<clipPath id="clip12">
  <path d="M 41 0.558594 L 95 0.558594 L 95 144 L 41 144 Z M 41 0.558594 "/>
</clipPath>
</defs>
<g id="surface1">
<path style=" stroke:none;fill-rule:nonzero;fill:rgb(94.526672%,68.740845%,53.407288%);fill-opacity:1;" d="M 30.351562 149.226562 L 51.308594 62.324219 L 0.167969 111.382812 L 30.351562 149.226562 "/>
<path style="fill:none;stroke-width:3.38001;stroke-linecap:round;stroke-linejoin:round;stroke:rgb(13.729858%,12.159729%,12.548828%);stroke-opacity:1;stroke-miterlimit:10;" d="M 305.664134 301.28657 L 516.71794 1176.461601 L 1.691578 682.402932 Z M 305.664134 301.28657 " transform="matrix(0.0992971,0,0,-0.0992971,0,179.143446)"/>
<path style=" stroke:none;fill-rule:nonzero;fill:rgb(62.875366%,53.404236%,74.732971%);fill-opacity:1;" d="M 51.308594 62.324219 L 30.351562 149.226562 L 111.644531 178.976562 "/>
<g clip-path="url(#clip1)" clip-rule="nonzero">
<path style="fill:none;stroke-width:3.38001;stroke-linecap:round;stroke-linejoin:round;stroke:rgb(13.729858%,12.159729%,12.548828%);stroke-opacity:1;stroke-miterlimit:10;" d="M 516.71794 1176.461601 L 305.664134 301.28657 L 1124.348341 1.680645 " transform="matrix(0.0992971,0,0,-0.0992971,0,179.143446)"/>
</g>
<path style="fill-rule:nonzero;fill:rgb(30.253601%,7.521057%,9.655762%);fill-opacity:1;stroke-width:3.38001;stroke-linecap:round;stroke-linejoin:round;stroke:rgb(13.729858%,12.159729%,12.548828%);stroke-opacity:1;stroke-miterlimit:10;" d="M 305.664134 301.28657 L 1.691578 682.402932 L 926.079713 362.655431 " transform="matrix(0.0992971,0,0,-0.0992971,0,179.143446)"/>
<path style=" stroke:none;fill-rule:nonzero;fill:rgb(30.253601%,7.521057%,9.655762%);fill-opacity:1;" d="M 91.957031 143.132812 L 111.644531 178.976562 L 30.351562 149.226562 "/>
<g clip-path="url(#clip2)" clip-rule="nonzero">
<path style="fill:none;stroke-width:3.38001;stroke-linecap:round;stroke-linejoin:round;stroke:rgb(13.729858%,12.159729%,12.548828%);stroke-opacity:1;stroke-miterlimit:10;" d="M 926.079713 362.655431 L 1124.348341 1.680645 L 305.664134 301.28657 " transform="matrix(0.0992971,0,0,-0.0992971,0,179.143446)"/>
</g>
<g clip-path="url(#clip3)" clip-rule="nonzero">
<path style=" stroke:none;fill-rule:nonzero;fill:rgb(58.200073%,40.34729%,62.532043%);fill-opacity:1;" d="M 94.28125 0.726562 L 51.308594 62.324219 L 135.902344 87.53125 L 94.28125 0.726562 "/>
</g>
<g clip-path="url(#clip4)" clip-rule="nonzero">
<path style="fill:none;stroke-width:3.38001;stroke-linecap:round;stroke-linejoin:round;stroke:rgb(13.729858%,12.159729%,12.548828%);stroke-opacity:1;stroke-miterlimit:10;" d="M 949.486426 1796.798502 L 516.71794 1176.461601 L 1368.643614 922.606947 Z M 949.486426 1796.798502 " transform="matrix(0.0992971,0,0,-0.0992971,0,179.143446)"/>
</g>
<path style=" stroke:none;fill-rule:nonzero;fill:rgb(62.875366%,53.404236%,74.732971%);fill-opacity:1;" d="M 111.644531 178.976562 L 135.902344 87.53125 L 51.308594 62.324219 "/>
<g clip-path="url(#clip5)" clip-rule="nonzero">
<path style="fill:none;stroke-width:3.38001;stroke-linecap:round;stroke-linejoin:round;stroke:rgb(13.729858%,12.159729%,12.548828%);stroke-opacity:1;stroke-miterlimit:10;" d="M 1124.348341 1.680645 L 1368.643614 922.606947 L 516.71794 1176.461601 " transform="matrix(0.0992971,0,0,-0.0992971,0,179.143446)"/>
</g>
<path style="fill-rule:nonzero;fill:rgb(74.397278%,33.544922%,14.884949%);fill-opacity:1;stroke-width:3.38001;stroke-linecap:round;stroke-linejoin:round;stroke:rgb(13.729858%,12.159729%,12.548828%);stroke-opacity:1;stroke-miterlimit:10;" d="M 423.917208 1320.245694 L 1.691578 682.402932 L 516.71794 1176.461601 " transform="matrix(0.0992971,0,0,-0.0992971,0,179.143446)"/>
<g clip-path="url(#clip6)" clip-rule="nonzero">
<path style=" stroke:none;fill-rule:nonzero;fill:rgb(74.397278%,33.544922%,14.884949%);fill-opacity:1;" d="M 51.308594 62.324219 L 94.28125 0.726562 L 42.09375 48.046875 "/>
</g>
<g clip-path="url(#clip7)" clip-rule="nonzero">
<path style="fill:none;stroke-width:3.38001;stroke-linecap:round;stroke-linejoin:round;stroke:rgb(13.729858%,12.159729%,12.548828%);stroke-opacity:1;stroke-miterlimit:10;" d="M 516.71794 1176.461601 L 949.486426 1796.798502 L 423.917208 1320.245694 " transform="matrix(0.0992971,0,0,-0.0992971,0,179.143446)"/>
</g>
<path style=" stroke:none;fill-rule:nonzero;fill:rgb(96.2677%,67.980957%,41.297913%);fill-opacity:1;" d="M 111.644531 178.976562 L 91.957031 143.132812 L 135.902344 87.53125 L 111.644531 178.976562 "/>
<g clip-path="url(#clip8)" clip-rule="nonzero">
<path style="fill:none;stroke-width:3.38001;stroke-linecap:round;stroke-linejoin:round;stroke:rgb(13.729858%,12.159729%,12.548828%);stroke-opacity:1;stroke-miterlimit:10;" d="M 1124.348341 1.680645 L 926.079713 362.655431 L 1368.643614 922.606947 Z M 1124.348341 1.680645 " transform="matrix(0.0992971,0,0,-0.0992971,0,179.143446)"/>
</g>
<g clip-path="url(#clip9)" clip-rule="nonzero">
<path style=" stroke:none;fill-rule:nonzero;fill:rgb(90.951538%,79.255676%,73.275757%);fill-opacity:1;" d="M 94.28125 0.726562 L 135.902344 87.53125 L 91.957031 143.132812 "/>
</g>
<g clip-path="url(#clip10)" clip-rule="nonzero">
<path style="fill:none;stroke-width:3.38001;stroke-linecap:round;stroke-linejoin:round;stroke:rgb(13.729858%,12.159729%,12.548828%);stroke-opacity:1;stroke-miterlimit:10;" d="M 949.486426 1796.798502 L 1368.643614 922.606947 L 926.079713 362.655431 " transform="matrix(0.0992971,0,0,-0.0992971,0,179.143446)"/>
</g>
<g clip-path="url(#clip11)" clip-rule="nonzero">
<path style=" stroke:none;fill-rule:nonzero;fill:rgb(90.951538%,79.255676%,73.275757%);fill-opacity:1;" d="M 91.957031 143.132812 L 42.09375 48.046875 L 94.28125 0.726562 "/>
</g>
<g clip-path="url(#clip12)" clip-rule="nonzero">
<path style="fill:none;stroke-width:3.38001;stroke-linecap:round;stroke-linejoin:round;stroke:rgb(13.729858%,12.159729%,12.548828%);stroke-opacity:1;stroke-miterlimit:10;" d="M 926.079713 362.655431 L 423.917208 1320.245694 L 949.486426 1796.798502 " transform="matrix(0.0992971,0,0,-0.0992971,0,179.143446)"/>
</g>
<path style=" stroke:none;fill-rule:nonzero;fill:rgb(54.79126%,35.523987%,58.274841%);fill-opacity:1;" d="M 42.09375 48.046875 L 91.957031 143.132812 L 0.167969 111.382812 L 42.09375 48.046875 "/>
<path style="fill:none;stroke-width:3.38001;stroke-linecap:round;stroke-linejoin:round;stroke:rgb(13.729858%,12.159729%,12.548828%);stroke-opacity:1;stroke-miterlimit:10;" d="M 423.917208 1320.245694 L 926.079713 362.655431 L 1.691578 682.402932 Z M 423.917208 1320.245694 " transform="matrix(0.0992971,0,0,-0.0992971,0,179.143446)"/>
</g>
</svg>

<svg xmlns="http://www.w3.org/2000/svg" width="182.707" height="239.8" viewBox="0 0 137.03 179.85" version="1.2"><defs><clipPath id="a"><path d="M30 62h82v117.145H30Zm0 0"/></clipPath><clipPath id="b"><path d="M30 142h82v37.145H30Zm0 0"/></clipPath><clipPath id="c"><path d="M51 .559h85V88H51Zm0 0"/></clipPath><clipPath id="d"><path d="M51 .559h85.066V88H51Zm0 0"/></clipPath><clipPath id="e"><path d="M51 62h85.066v117.145H51Zm0 0"/></clipPath><clipPath id="f"><path d="M42 .559h53V63H42Zm0 0"/></clipPath><clipPath id="g"><path d="M41 .559h54V63H41Zm0 0"/></clipPath><clipPath id="h"><path d="M91 87h45.066v92.145H91Zm0 0"/></clipPath><clipPath id="i"><path d="M91 .559h45V144H91Zm0 0"/></clipPath><clipPath id="j"><path d="M91 .559h45.066V144H91Zm0 0"/></clipPath><clipPath id="k"><path d="M42 .559h53V144H42Zm0 0"/></clipPath><clipPath id="l"><path d="M41 .559h54V144H41Zm0 0"/></clipPath></defs><path style="stroke:none;fill-rule:nonzero;fill:#f1af88;fill-opacity:1" d="m30.352 149.227 20.957-86.903L.168 111.383l30.184 37.844"/><path style="fill:none;stroke-width:3.38001;stroke-linecap:round;stroke-linejoin:round;stroke:#231f20;stroke-opacity:1;stroke-miterlimit:10" d="m305.664 301.287 211.054 875.175L1.692 682.402Zm0 0" transform="matrix(.0993 0 0 -.0993 0 179.143)"/><path style="stroke:none;fill-rule:nonzero;fill:#a088bf;fill-opacity:1" d="m51.309 62.324-20.957 86.903 81.293 29.75"/><g clip-path="url(#a)"><path style="fill:none;stroke-width:3.38001;stroke-linecap:round;stroke-linejoin:round;stroke:#231f20;stroke-opacity:1;stroke-miterlimit:10" d="M516.718 1176.462 305.664 301.287 1124.348 1.68" transform="matrix(.0993 0 0 -.0993 0 179.143)"/></g><path style="fill-rule:nonzero;fill:#4d1319;fill-opacity:1;stroke-width:3.38001;stroke-linecap:round;stroke-linejoin:round;stroke:#231f20;stroke-opacity:1;stroke-miterlimit:10" d="M305.664 301.287 1.692 682.403 926.08 362.655" transform="matrix(.0993 0 0 -.0993 0 179.143)"/><path style="stroke:none;fill-rule:nonzero;fill:#4d1319;fill-opacity:1" d="m91.957 143.133 19.688 35.844-81.293-29.75"/><g clip-path="url(#b)"><path style="fill:none;stroke-width:3.38001;stroke-linecap:round;stroke-linejoin:round;stroke:#231f20;stroke-opacity:1;stroke-miterlimit:10" d="M926.08 362.655 1124.348 1.681 305.664 301.287" transform="matrix(.0993 0 0 -.0993 0 179.143)"/></g><g clip-path="url(#c)"><path style="stroke:none;fill-rule:nonzero;fill:#94679f;fill-opacity:1" d="M94.281.727 51.31 62.324l84.593 25.207L94.282.727"/></g><g clip-path="url(#d)"><path style="fill:none;stroke-width:3.38001;stroke-linecap:round;stroke-linejoin:round;stroke:#231f20;stroke-opacity:1;stroke-miterlimit:10" d="m949.486 1796.799-432.768-620.337 851.926-253.855Zm0 0" transform="matrix(.0993 0 0 -.0993 0 179.143)"/></g><path style="stroke:none;fill-rule:nonzero;fill:#a088bf;fill-opacity:1" d="m111.645 178.977 24.257-91.446L51.31 62.324"/><g clip-path="url(#e)"><path style="fill:none;stroke-width:3.38001;stroke-linecap:round;stroke-linejoin:round;stroke:#231f20;stroke-opacity:1;stroke-miterlimit:10" d="m1124.348 1.68 244.296 920.927-851.926 253.855" transform="matrix(.0993 0 0 -.0993 0 179.143)"/></g><path style="fill-rule:nonzero;fill:#be5626;fill-opacity:1;stroke-width:3.38001;stroke-linecap:round;stroke-linejoin:round;stroke:#231f20;stroke-opacity:1;stroke-miterlimit:10" d="M423.917 1320.246 1.692 682.403l515.026 494.059" transform="matrix(.0993 0 0 -.0993 0 179.143)"/><g clip-path="url(#f)"><path style="stroke:none;fill-rule:nonzero;fill:#be5626;fill-opacity:1" d="M51.309 62.324 94.28.727l-52.187 47.32"/></g><g clip-path="url(#g)"><path style="fill:none;stroke-width:3.38001;stroke-linecap:round;stroke-linejoin:round;stroke:#231f20;stroke-opacity:1;stroke-miterlimit:10" d="m516.718 1176.462 432.768 620.337-525.569-476.553" transform="matrix(.0993 0 0 -.0993 0 179.143)"/></g><path style="stroke:none;fill-rule:nonzero;fill:#f5ad69;fill-opacity:1" d="m111.645 178.977-19.688-35.844 43.945-55.602-24.257 91.446"/><g clip-path="url(#h)"><path style="fill:none;stroke-width:3.38001;stroke-linecap:round;stroke-linejoin:round;stroke:#231f20;stroke-opacity:1;stroke-miterlimit:10" d="M1124.348 1.68 926.08 362.656l442.564 559.952Zm0 0" transform="matrix(.0993 0 0 -.0993 0 179.143)"/></g><g clip-path="url(#i)"><path style="stroke:none;fill-rule:nonzero;fill:#e8cabb;fill-opacity:1" d="m94.281.727 41.621 86.804-43.945 55.602"/></g><g clip-path="url(#j)"><path style="fill:none;stroke-width:3.38001;stroke-linecap:round;stroke-linejoin:round;stroke:#231f20;stroke-opacity:1;stroke-miterlimit:10" d="m949.486 1796.799 419.158-874.192L926.08 362.655" transform="matrix(.0993 0 0 -.0993 0 179.143)"/></g><g clip-path="url(#k)"><path style="stroke:none;fill-rule:nonzero;fill:#e8cabb;fill-opacity:1" d="M91.957 143.133 42.094 48.047 94.28.727"/></g><g clip-path="url(#l)"><path style="fill:none;stroke-width:3.38001;stroke-linecap:round;stroke-linejoin:round;stroke:#231f20;stroke-opacity:1;stroke-miterlimit:10" d="m926.08 362.655-502.163 957.59 525.57 476.554" transform="matrix(.0993 0 0 -.0993 0 179.143)"/></g><path style="stroke:none;fill-rule:nonzero;fill:#8c5b95;fill-opacity:1" d="m42.094 48.047 49.863 95.086-91.789-31.75 41.926-63.336"/><path style="fill:none;stroke-width:3.38001;stroke-linecap:round;stroke-linejoin:round;stroke:#231f20;stroke-opacity:1;stroke-miterlimit:10" d="m423.917 1320.246 502.163-957.59L1.692 682.402Zm0 0" transform="matrix(.0993 0 0 -.0993 0 179.143)"/></svg>
